packages/foundations/icons/Health/WalkingStick.svg

<svg width="24" height="24" viewBox="0 0 24 24" fill="none" xmlns="http://www.w3.org/2000/svg">
<path fill-rule="evenodd" clip-rule="evenodd" d="M16.2002 3.25639C16.2002 2.01022 15.1974 1 13.9603 1C12.7232 1 11.7204 2.01022 11.7204 3.25639C11.7204 4.50257 12.7232 5.51279 13.9603 5.51279C15.1974 5.51279 16.2002 4.50257 16.2002 3.25639ZM15.631 6.64L15.714 6.644L15.7606 6.64828C16.118 6.68682 16.4456 6.89853 16.6242 7.23084L16.6445 7.27174C16.6534 7.28983 16.6618 7.3082 16.6697 7.32682L16.6797 7.35018L18.9196 12.9912C19.1493 13.5697 18.87 14.2263 18.2957 14.4577C17.7624 14.6726 17.1623 14.4453 16.8954 13.9485L16.8399 13.8292L16.759 13.628L16.7598 21.8716C16.7598 22.4947 16.2583 22.9998 15.6398 22.9998C15.0655 22.9998 14.5921 22.5643 14.5274 22.0032L14.5198 21.8716V15.6666H13.3999V21.8716C13.3999 22.4502 12.9675 22.9271 12.4105 22.9923L12.2799 22.9998C11.7056 22.9998 11.2322 22.5643 11.1675 22.0032L11.16 21.8716L11.159 11.843L9.88039 13.9906C9.6917 14.3074 9.37304 14.4973 9.0343 14.5325L6.16924 22.6141C6.06447 22.9097 5.72471 23.0694 5.41038 22.9709C5.13098 22.8833 4.96571 22.6212 5.00602 22.3564L5.03095 22.2574L7.95999 13.9916C7.77524 13.6814 7.74437 13.2907 7.89893 12.9464L7.95966 12.8297L11.3196 7.18873C11.5286 6.8378 11.8971 6.64263 12.2757 6.64083L15.631 6.64Z" fill="#3D474D"/>
</svg>

<svg xmlns="http://www.w3.org/2000/svg" fill="none" viewBox="0 0 24 24" width="100%" height="100%">
  <path fill="#3D474D" fill-rule="evenodd" d="M16.2 3.256A2.248 2.248 0 0 0 13.96 1a2.248 2.248 0 0 0-2.24 2.256 2.248 2.248 0 0 0 2.24 2.257c1.237 0 2.24-1.01 2.24-2.257Zm-.569 3.384.083.004.047.004c.357.039.685.25.863.583l.02.04a.7.7 0 0 1 .026.056l.01.023 2.24 5.641c.23.579-.05 1.235-.624 1.467a1.116 1.116 0 0 1-1.4-.51l-.056-.119-.081-.201v8.244c0 .623-.5 1.128-1.12 1.128a1.123 1.123 0 0 1-1.112-.997l-.007-.131v-6.205H13.4v6.205c0 .578-.433 1.055-.99 1.12l-.13.008a1.123 1.123 0 0 1-1.112-.997l-.008-.131-.001-10.029-1.279 2.148a1.117 1.117 0 0 1-.846.542L6.17 22.614c-.105.296-.444.455-.759.357a.563.563 0 0 1-.404-.615l.025-.099 2.929-8.265a1.136 1.136 0 0 1-.061-1.046l.06-.116 3.36-5.641a1.12 1.12 0 0 1 .957-.548l3.355-.001Z" clip-rule="evenodd"/>
</svg>
